public/images/logo5.svg

<svg width="240" height="200" fill="none" xmlns="http://www.w3.org/2000/svg"><path d="M128.296 117.168c-1.12 0-2.128-.192-3.024-.576-.896-.4-1.6-.96-2.112-1.68s-.768-1.56-.768-2.52h2.928c.064.72.344 1.312.84 1.776.512.464 1.224.696 2.136.696.944 0 1.68-.224 2.208-.672.528-.464.792-1.056.792-1.776 0-.56-.168-1.016-.504-1.368a3.167 3.167 0 0 0-1.224-.816c-.48-.192-1.152-.4-2.016-.624-1.088-.288-1.976-.576-2.664-.864a4.508 4.508 0 0 1-1.728-1.392c-.48-.624-.72-1.456-.72-2.496 0-.96.24-1.8.72-2.52s1.152-1.272 2.016-1.656c.864-.384 1.864-.576 3-.576 1.616 0 2.936.408 3.96 1.224 1.04.8 1.616 1.904 1.728 3.312h-3.024c-.048-.608-.336-1.128-.864-1.56-.528-.432-1.224-.648-2.088-.648-.784 0-1.424.2-1.92.6-.496.4-.744.976-.744 1.728 0 .512.152.936.456 1.272.32.32.72.576 1.2.768.48.192 1.136.4 1.968.624 1.104.304 2 .608 2.688.912a4.349 4.349 0 0 1 1.776 1.416c.496.624.744 1.464.744 2.52 0 .848-.232 1.648-.696 2.4-.448.752-1.112 1.36-1.992 1.824-.864.448-1.888.672-3.072.672Zm12.18-11.16v7.32c0 .496.112.856.336 1.08.24.208.64.312 1.2.312h1.68V117h-2.16c-1.232 0-2.176-.288-2.832-.864-.656-.576-.984-1.512-.984-2.808v-7.32h-1.56v-2.232h1.56v-3.288h2.76v3.288h3.216v2.232h-3.216Zm4.826 4.32c0-1.328.272-2.504.816-3.528.56-1.024 1.312-1.816 2.256-2.376a6.042 6.042 0 0 1 3.168-.864c1.04 0 1.944.208 2.712.624.784.4 1.408.904 1.872 1.512v-1.92h2.76V117h-2.76v-1.968c-.464.624-1.096 1.144-1.896 1.56-.8.416-1.712.624-2.736.624a5.875 5.875 0 0 1-3.12-.864c-.944-.592-1.696-1.408-2.256-2.448-.544-1.056-.816-2.248-.816-3.576Zm10.824.048c0-.912-.192-1.704-.576-2.376-.368-.672-.856-1.184-1.464-1.536a3.862 3.862 0 0 0-1.968-.528c-.704 0-1.36.176-1.968.528-.608.336-1.104.84-1.488 1.512-.368.656-.552 1.44-.552 2.352 0 .912.184 1.712.552 2.4.384.688.88 1.216 1.488 1.584.624.352 1.28.528 1.968.528.704 0 1.36-.176 1.968-.528.608-.352 1.096-.864 1.464-1.536.384-.688.576-1.488.576-2.4Zm9.09-4.68c.4-.672.928-1.192 1.584-1.56.672-.384 1.464-.576 2.376-.576v2.832h-.696c-1.072 0-1.888.272-2.448.816-.544.544-.816 1.488-.816 2.832V117h-2.736v-13.224h2.736v1.92Zm9.667.312v7.32c0 .496.112.856.336 1.08.24.208.64.312 1.2.312h1.68V117h-2.16c-1.232 0-2.176-.288-2.832-.864-.656-.576-.984-1.512-.984-2.808v-7.32h-1.56v-2.232h1.56v-3.288h2.76v3.288h3.216v2.232h-3.216Zm17.713-2.232V117h-2.736v-1.56c-.432.544-1 .976-1.704 1.296a5.402 5.402 0 0 1-2.208.456c-1.04 0-1.976-.216-2.808-.648-.816-.432-1.464-1.072-1.944-1.92-.464-.848-.696-1.872-.696-3.072v-7.776h2.712v7.368c0 1.184.296 2.096.888 2.736.592.624 1.4.936 2.424.936s1.832-.312 2.424-.936c.608-.64.912-1.552.912-2.736v-7.368h2.736Zm6.346 1.944c.464-.608 1.096-1.12 1.896-1.536.8-.416 1.704-.624 2.712-.624 1.152 0 2.2.288 3.144.864.96.56 1.712 1.352 2.256 2.376.544 1.024.816 2.2.816 3.528 0 1.328-.272 2.52-.816 3.576-.544 1.04-1.296 1.856-2.256 2.448-.944.576-1.992.864-3.144.864-1.008 0-1.904-.2-2.688-.6-.784-.416-1.424-.928-1.92-1.536v8.208h-2.736v-19.512h2.736v1.944Zm8.04 4.608c0-.912-.192-1.696-.576-2.352-.368-.672-.864-1.176-1.488-1.512a3.862 3.862 0 0 0-1.968-.528c-.688 0-1.344.176-1.968.528-.608.352-1.104.864-1.488 1.536-.368.672-.552 1.464-.552 2.376 0 .912.184 1.712.552 2.4.384.672.88 1.184 1.488 1.536.624.352 1.28.528 1.968.528.704 0 1.36-.176 1.968-.528.624-.368 1.12-.896 1.488-1.584.384-.688.576-1.488.576-2.4Z" fill="#fff"/><rect x="29" y="83" width="50" height="13" rx="6.5" fill="#fff"/><rect x="46" y="101" width="50" height="13" rx="6.5" fill="#fff"/><rect x="29" y="121" width="50" height="13" rx="6.5" fill="#fff"/></svg>

<svg width="240" height="200" viewBox="0 0 240 200" fill="none" xmlns="http://www.w3.org/2000/svg">
<path d="M128.296 117.168C127.176 117.168 126.168 116.976 125.272 116.592C124.376 116.192 123.672 115.632 123.16 114.912C122.648 114.192 122.392 113.352 122.392 112.392H125.32C125.384 113.112 125.664 113.704 126.16 114.168C126.672 114.632 127.384 114.864 128.296 114.864C129.24 114.864 129.976 114.64 130.504 114.192C131.032 113.728 131.296 113.136 131.296 112.416C131.296 111.856 131.128 111.4 130.792 111.048C130.472 110.696 130.064 110.424 129.568 110.232C129.088 110.04 128.416 109.832 127.552 109.608C126.464 109.32 125.576 109.032 124.888 108.744C124.216 108.44 123.64 107.976 123.16 107.352C122.68 106.728 122.44 105.896 122.44 104.856C122.44 103.896 122.68 103.056 123.16 102.336C123.64 101.616 124.312 101.064 125.176 100.68C126.04 100.296 127.04 100.104 128.176 100.104C129.792 100.104 131.112 100.512 132.136 101.328C133.176 102.128 133.752 103.232 133.864 104.64H130.84C130.792 104.032 130.504 103.512 129.976 103.08C129.448 102.648 128.752 102.432 127.888 102.432C127.104 102.432 126.464 102.632 125.968 103.032C125.472 103.432 125.224 104.008 125.224 104.76C125.224 105.272 125.376 105.696 125.68 106.032C126 106.352 126.4 106.608 126.88 106.8C127.36 106.992 128.016 107.2 128.848 107.424C129.952 107.728 130.848 108.032 131.536 108.336C132.24 108.64 132.832 109.112 133.312 109.752C133.808 110.376 134.056 111.216 134.056 112.272C134.056 113.12 133.824 113.92 133.36 114.672C132.912 115.424 132.248 116.032 131.368 116.496C130.504 116.944 129.48 117.168 128.296 117.168ZM140.476 106.008V113.328C140.476 113.824 140.588 114.184 140.812 114.408C141.052 114.616 141.452 114.72 142.012 114.72H143.692V117H141.532C140.3 117 139.356 116.712 138.7 116.136C138.044 115.56 137.716 114.624 137.716 113.328V106.008H136.156V103.776H137.716V100.488H140.476V103.776H143.692V106.008H140.476ZM145.302 110.328C145.302 109 145.574 107.824 146.118 106.8C146.678 105.776 147.43 104.984 148.374 104.424C149.334 103.848 150.39 103.56 151.542 103.56C152.582 103.56 153.486 103.768 154.254 104.184C155.038 104.584 155.662 105.088 156.126 105.696V103.776H158.886V117H156.126V115.032C155.662 115.656 155.03 116.176 154.23 116.592C153.43 117.008 152.518 117.216 151.494 117.216C150.358 117.216 149.318 116.928 148.374 116.352C147.43 115.76 146.678 114.944 146.118 113.904C145.574 112.848 145.302 111.656 145.302 110.328ZM156.126 110.376C156.126 109.464 155.934 108.672 155.55 108C155.182 107.328 154.694 106.816 154.086 106.464C153.478 106.112 152.822 105.936 152.118 105.936C151.414 105.936 150.758 106.112 150.15 106.464C149.542 106.8 149.046 107.304 148.662 107.976C148.294 108.632 148.11 109.416 148.11 110.328C148.11 111.24 148.294 112.04 148.662 112.728C149.046 113.416 149.542 113.944 150.15 114.312C150.774 114.664 151.43 114.84 152.118 114.84C152.822 114.84 153.478 114.664 154.086 114.312C154.694 113.96 155.182 113.448 155.55 112.776C155.934 112.088 156.126 111.288 156.126 110.376ZM165.216 105.696C165.616 105.024 166.144 104.504 166.8 104.136C167.472 103.752 168.264 103.56 169.176 103.56V106.392H168.48C167.408 106.392 166.592 106.664 166.032 107.208C165.488 107.752 165.216 108.696 165.216 110.04V117H162.48V103.776H165.216V105.696ZM174.883 106.008V113.328C174.883 113.824 174.995 114.184 175.219 114.408C175.459 114.616 175.859 114.72 176.419 114.72H178.099V117H175.939C174.707 117 173.763 116.712 173.107 116.136C172.451 115.56 172.123 114.624 172.123 113.328V106.008H170.563V103.776H172.123V100.488H174.883V103.776H178.099V106.008H174.883ZM192.596 103.776V117H189.86V115.44C189.428 115.984 188.86 116.416 188.156 116.736C187.468 117.04 186.732 117.192 185.948 117.192C184.908 117.192 183.972 116.976 183.14 116.544C182.324 116.112 181.676 115.472 181.196 114.624C180.732 113.776 180.5 112.752 180.5 111.552V103.776H183.212V111.144C183.212 112.328 183.508 113.24 184.1 113.88C184.692 114.504 185.5 114.816 186.524 114.816C187.548 114.816 188.356 114.504 188.948 113.88C189.556 113.24 189.86 112.328 189.86 111.144V103.776H192.596ZM198.942 105.72C199.406 105.112 200.038 104.6 200.838 104.184C201.638 103.768 202.542 103.56 203.55 103.56C204.702 103.56 205.75 103.848 206.694 104.424C207.654 104.984 208.406 105.776 208.95 106.8C209.494 107.824 209.766 109 209.766 110.328C209.766 111.656 209.494 112.848 208.95 113.904C208.406 114.944 207.654 115.76 206.694 116.352C205.75 116.928 204.702 117.216 203.55 117.216C202.542 117.216 201.646 117.016 200.862 116.616C200.078 116.2 199.438 115.688 198.942 115.08V123.288H196.206V103.776H198.942V105.72ZM206.982 110.328C206.982 109.416 206.79 108.632 206.406 107.976C206.038 107.304 205.542 106.8 204.918 106.464C204.31 106.112 203.654 105.936 202.95 105.936C202.262 105.936 201.606 106.112 200.982 106.464C200.374 106.816 199.878 107.328 199.494 108C199.126 108.672 198.942 109.464 198.942 110.376C198.942 111.288 199.126 112.088 199.494 112.776C199.878 113.448 200.374 113.96 200.982 114.312C201.606 114.664 202.262 114.84 202.95 114.84C203.654 114.84 204.31 114.664 204.918 114.312C205.542 113.944 206.038 113.416 206.406 112.728C206.79 112.04 206.982 111.24 206.982 110.328Z" fill="white"/>
<rect x="29" y="83" width="50" height="13" rx="6.5" fill="white"/>
<rect x="46" y="101" width="50" height="13" rx="6.5" fill="white"/>
<rect x="29" y="121" width="50" height="13" rx="6.5" fill="white"/>
</svg>
